svg/cancel_alt.svg

<svg xmlns="http://www.w3.org/2000/svg" viewBox="0 0 24 24"><path d="M12 2c5.5 0 10 4.5 10 10s-4.5 10-10 10S2 17.5 2 12 6.5 2 12 2m0 2c-1.9 0-3.6.6-4.9 1.7l11.2 11.2c1-1.4 1.7-3.1 1.7-4.9 0-4.4-3.6-8-8-8m4.9 14.3L5.7 7.1C4.6 8.4 4 10.1 4 12c0 4.4 3.6 8 8 8 1.9 0 3.6-.6 4.9-1.7"/></svg>

<?xml version="1.0" encoding="UTF-8"?><!DOCTYPE svg PUBLIC "-//W3C//DTD SVG 1.1//EN" "http://www.w3.org/Graphics/SVG/1.1/DTD/svg11.dtd"><svg xmlns="http://www.w3.org/2000/svg" xmlns:xlink="http://www.w3.org/1999/xlink" version="1.1" id="mdi-cancel" width="24" height="24" viewBox="0 0 24 24"><path d="M12 2C17.5 2 22 6.5 22 12S17.5 22 12 22 2 17.5 2 12 6.5 2 12 2M12 4C10.1 4 8.4 4.6 7.1 5.7L18.3 16.9C19.3 15.5 20 13.8 20 12C20 7.6 16.4 4 12 4M16.9 18.3L5.7 7.1C4.6 8.4 4 10.1 4 12C4 16.4 7.6 20 12 20C13.9 20 15.6 19.4 16.9 18.3Z" /></svg>
